X: 3799
T: Björn's
R: polka
M: 2/4
K: Gmajor
|:B/c/|dB/c/ dB/c/|dB GB/c/|dB/c/ dg|f2- ff/g/|
az/.f/ az/.f/|a/g/f/e/ d>e|dz/c/ BA|1 G2- G:|2 Gg f=f||
e2 c2|Gg g/f/e|dz zB|Gg fg|
az zf|da ^ga|bz zg|dg f=f|
e2 c2|Gg fe|dz zB|Gg fe|
de/d/ cd/c/|EF/E/ FG/F/|GA/G/ GA/G/|Gg g/f/=f|
ez zc|zG zg|dz zB|zG zg|
az zf|zd za|b_b a_a|gf =f2|
ez zc|zG zg|dz zB|zG zg|
d2 c2|E2 F2|G2- G2|G2 G||

